X:143
T:Orsavalsen
R:waltz
C:Trad. 
A:Orsa
O:Sweden
Z:Re-done by Bart Brashers, Jan 2000, as I play it.
M:3/4
Q:1/4=192
K:D
|:DF|A4A2| (AB) (AG) FA| {c}d3c de| d2 (cA) de|\
f4a2| a2 (gf) ec| (Ac) (eg) fe| d2 (Bd) BG|
{G}A4 A2| (AB) (AG) FA| d3c de| d2 (cA) de|\
f4 a2| a2 (gf) ec| (Ac) (eg) fe| d4:|
|:g2 |b2 (gb) gb| a2 (fd) fa| (ab) (ag) ec| A2 df a2|\
b2 (gb) gb| a2 (fd) fa| (ab) (ag) ec| d4 :|
|: A2|A2 d2 g2| f3e d2| d2 (gb) gb| a3f d2|\
de =f2 d2| e4 (=c2| =c2) (Bd) BG| A4 A2|
A2 f2 a2| g3f g2| A2 d2 f2| e3d e2|\
AB c2 d2| E3^G B2| (AB) (AG) EC| D4:|
P:Second voice
A,D|D4F2|(FG) (FE) DF| A4AB| A2 F2 A2| \
d4f2| f2 (ed) cB| (AB) (AG) EG| F2D2B,2|
A,4F2| (FG) (FE) DF| A4AB| A2F2A2| \
d4f2| f2 (ed) cB| (AB) (AG) EG| F4 :|
|:A2|\
(DG) (BG) BG| F2 (DF) Ad| (cB) (AG) EG| F2 (DF) AF|\
(DG) (BG) BG| F2 (DF) Ad| (cB) (AG) EG| F4:|
|:FE|\
D2 A2 G2| A3G F2 | F2 (Ad) Bd| (AB) (AG) F2|\
(FA) d2 d2| =c4 (A2|A2)(GF) ED |[A,4E4]E2|
F2 A2 d2|e3d e2| D2 F2 A2| c3B c2| \
FG A2 G2| B,3E ^G2| (FG) (FE) CA,| A,4:|

